X:2500
T:Hatfield house
O:england
M:2/4
L:1/8
K:G
D2 | G3A B2G2 | c3A F2D2 | GABc defg | d6 Bd | \
c2a^g a2c2 | B2gf g2B2 | A2e2 d2F2 | G6 :|
|:d2 | g3a b2g2 | a4 f2d2 | e3f g2e2 | f4 d2B2|\
c3d e2c2 | d4 B2G2 | A2e2 d2F2 | G6 :|
